X: 5
T: Farewell To Ireland
R: reel
M: 4/4
L: 1/8
K: Dmaj
D2 (3DDD AD(3DDD|Addc defe|D2 (3DDD AD(3DDD|(3.B.c.d AF (3.A.G.E AF|
D2 (3DDD AD(3DDD|Addc defg|af (3gfe fdec| (3.B.c.d AF AEE2:|
|dcdB AF ~F2|DF~F2 AF ~F2|dcdB ADFA|(3.B.c.d AF EGFE|
dcdB AFFE|DF~F2 ABde|(3.g.f.d ec dcdA|BdAF EGFE|
|dcdB AF ~F2|DF~F2 AF ~F2|dcdB ADFA|(3.B.c.d AF EGFE|
dcdA ~B2 BA|BAGB ABde|(3.g.f.d ec dcdA|BdAF EGFE|


Tune 4403	Setting 17060

